X:1
T:Ev'rybody's crazy 'bout the doggone blues
T:Ev'rybody's crazy 'bout the doggone blues
T:But I'm Happy
T:by Creamer and Layton
T:Library of Congress, Music Division - 
T:Library of Congress, Music Division - 
T:Library of Congress, Music Division - 
C:by Creamer and Layton
Z:Library of Congress, Music Division -
%%score 1 2 { ( 3 6 ) | ( 4 5 ) }
L:1/8
Q:1/4=114
M:4/4
K:G
V:1 treble nm="Alto"
V:2 treble nm="Women"
V:3 treble nm="Piano"
V:6 treble 
V:4 bass 
V:5 bass 
V:1
"^Moderato" z8 | z8 | z8 | z8 |: z8 | z8 :|"^Voice" _B2 A2 G3/2 G/ A3/2 G/ | %7
w: ||||||Blues ain't noth\- in' but the|
w: ||||||You all know how Mis\- ter|
 _B3/2 d/ B3/2 A/ G E2 G- | G4- G z z B- | B d B A G2 E2 | _B2 A2 G2 A2 | %11
w: eas\- y go\- in' heart dis\- ease,|_ _ Broth\-|* er stop your moan\- in'|Blues can't make you|
w: Jo\- nah got in\- to that whale,|_ _ Fell-|* in\- to the o\- cean|There's one man that|
 =B3/2 d/ B3/2 A/ G E2 G- | G4- G z z B- | B d B A G2 E2 | z2 A2 A2 B2 | c B2 A- A4 | B2 B2 B2 c2 | %17
w: warm\- er if you're bound to freeze|_ _ Sis\--|* ter sto your groan\- in'|Why don't you|rise and shine *|Take dem blues right|
w: should have sung the blues but failed,|_ _ Nev\--|* er had the no\- tion|Old Jo\- nah|knew dem whales *|'Stead of blues he|
 d c2 B- B B2 ^A | B2 =A2 G3/2 G/ A3/2 G/ | B3/2 d/ B3/2 A/ G2 E G- | G4- G z !>!B2 | %21
w: off your mind * 'cause the|blues ain't noth\- in' but the|eas\- y go\- in' heart dis\- ease,|_ _ That's|
w: ragged the scales,- * then the|whale got gay and let old|Jo\- nah slip right out of jail,|_ _ No|
 !>!A2 z2 !^!d2 z2 |:[M:4/4] z8 | z8 | z8 | z8 | z8 | z8 | z8 | z8 | z8 | z8 | z8 | z8 | z8 | z8 | %36
w: all! Lawd!|||||||||||||||
w: lie! Lawd!|||||||||||||||
 z8 | z8 | z8 | z8 | z8 | z8 | z8 | z8 | z8 | z8 | z8 | z8 | z8 | z8 | z8 | z8 | z8 |1 z8 :|2 z8 |] %55
w: |||||||||||||||||||
w: |||||||||||||||||||
V:2
 z8 | z8 | z8 | z8 |: z8 | z8 :| z8 | z8 | z8 | z8 | z8 | z8 | z8 | z8 | z8 | z8 | z8 | z8 | z8 | %19
w: |||||||||||||||||||
 z8 | z8 | z8 |:[M:4/4]"^CHORUS" _D3/2 D/ _E3/2 E/ F3/2 F/ _A3/2 F/ | _B _A2 F- F F B2 | %24
w: |||Ev\- 'ry bod\- y's cra\- zy 'bout the|dog\- gone blues, _ but I'm|
 _A F3"^(\nspoken\n)\n\n" z2 =A2 | B d3 z2 z2 | D3/2 D/ E3/2 E/ G3/2 G/ A3/2 G/ | B A2 G- G2 B2 | %28
w: hap\- py, yes|hap\- py,|Ev\- ry bod\- y's cra\- zy, but if|I must choose, _ no|
 B A2 A- A2 B2 | A4- A3/2 ^G/ A3/2 B/ | c B c A- A2 z2 | z3/2 B/ c3/2 B/ c A3 | B ^A B G- G2 z2 | %33
w: dog\- gone blues _ for|mine _ I gets a\-|plen\- ty to eat, _|I nev\- er wor\- ry,|Shoes on my feet, _|
 z3/2 ^A/ B3/2 A/ B G2 E | F A2 A- A3 ^D | E A2 A- A4 | z3/2 A/ B3/2 A/ B3/2 A/ B3/2 A/ | %37
w: don't have to hur\- ry, I'm|not a\- fraid, * my|rent is paid, _|And I can sleep at nine\- ty\-|
 B A B d- d4 | D3/2 D/ E3/2 E/ G3/2 G/ A3/2 G/ | B A2 G- G G B2 | A G3"^(\nspoken\n)\n\n" z2 A2 | %41
w: four in the shade. *|Ev\- ry bod\- y's sing\- ing lot\- ta|bad old news _ but I'm|hap\- py, yes,|
 B d3 z2 z2 | D2 ^D2 E F2 G- | G2 F2 G A2 B- | B8- | B4- B z B2 | B8 | _B G3- G4 | D2 z2 d4 | %49
w: hap\- py.|Life's too dog\- one shor|* to weep and whibe.|_|* * Dem|home|sick\- ness _|blues, Lawd!|
 d e B d- d4 | D3/2 D/ E3/2 E/ G3/2 G/ A3/2 G/ | B A2 G- G G B2 | B d2 e- e d e2 |1 G4- G2 z2 :|2 %54
w: taje 'em a\- way. *|Ev\- 'ry bod\- y's cra\- zy 'bout the|dog\- gone blues, _ but I'm|hap\- py, all _ of the|time. _|
 G2 z2"^(\nspoken\n)\n\n" z2 z2 |] %55
w: time.|
V:3
!f! [DBd]>d [EBe]>e [GBg]>g [Aa]>[Gg] | [dgb] [cfa]2 [Beg]- [Beg]>f[^cg]>a | %2
w: ||
 [dgb] [dd']2 [fc'e']- [fc'e']d' [fc'e']2 | [GBg]4!sfz!!8va(! !^![gbd'g']2!8va)! z2 |: %4
w: ||
 [^CG_B]2 [CA]2 [CG]>G[CB]>G | [F=cd]2!f!!<(! (D/^C/D/C/)!<)! D z z2 :| %6
w: ||
!p! [^CG_B]2 [CA]2 [CG]>G[CB]>G | [DG=B]>d[DB]>[^DA] [EG] [^A,E]2 [B,G]- | %8
w: ||
 [B,G]{/^d}!>![eg]{/d}!>![eg]{/d}!>![eg]{/d} !>![eg] z z [DGB]- | [DGB]dBA [B,EG]2 [B,E]2 | %10
w: ||
!p! [^CG_B]2 [CA]2 [CG]>G[CB]>G | [DG=B]>d[DB]>[^DA] [EG] [^A,E]2 [B,G]- | %12
w: ||
 [B,G]{/^d}!>![eg]{/d}!>![eg]{/d}!>![eg]{/d} !>![eg] z z [DGB]- | [DGB]dBA [B,EG]2 [B,E]2 | %14
w: ||
 z2 [DFA]2 [DFA]2 [DFB]2 | [EFc] [DFB]2 [CFA]- A4 | [DGB]2 [DGB]2 [DGB]2 [DFc]2 | %17
w: |||
 [DGd] [DFc]2 [DGB]- [DGB] [DGB]2 ^A | [DGB]2 [=CFA]2 [B,EG]>G[^CB]>G | %19
w: ||
 [DG=B]>d[DB]>[^DA] [EG]2 [CE][B,=DG]- | [B,DG]2 ([^Ae]>d) !>![Bg] z !>![^CGB]2 | %21
w: ||
 !>![=CFA]2 z2 [dfac'd']2 z2 |:[M:4/4] [_B,_D]>D!p![B,_E]>E [B,F]>F_A>F | %23
w: ||
 [_DE_B] [DE_A]2 [DEF]- [DEF]F [=DB]2 | [_E_A] [EF]3 !arpeggio![egc'e']2 [EG=A]2 | %25
w: |* l. h. * *|
 [DGB] [DBd]3 !arpeggio![df^ad']2 z2 | [B,D]>D[B,E]>E [B,G]>GA>G | %27
w: ||
 [DGB] [CFA]2 [B,EG]- [B,EG]2 [GB]2 | [^CGB] [CGA]2 [CGA] [CGA]2 [CGB]2 | A4 A>^GA>B | %30
w: |||
 cBcA- A2 z2 | z3/2 B<[Fc]B/ [Fc] [FA]3 | B^ABG- G2 z2 | z3/2 ^A<[GB]A/ [GB] [EG]2 E | %34
w: ||||
 [A,DF] [A,A]2 [A,FA]- [FA]3 ^D | [^CE] [CGA]2 [CGA]- [CGA]E !>![CGA]2 | %36
w: ||
 z3/2 A<[=CEB]A/ [CEB]>A[CEB]>A | [CEB]A[CEB][DFcd]- [DFcd](FE_E) | [B,D]>D[B,E]>E [B,G]>GA>G | %39
w: |||
 [D=FB] [DFA]2 [DFG]- [DFG]G [^DB]2 | [EA] [EG]3 !arpeggio![egc'e']2 [_EGA]2 | %41
w: |* * l.h. *|
 [DGB] [DBd]3 !arpeggio![dgbd']2 z2 | [G,CE]2 [F,C^D]2 [G,CE] F2 [G,EG]- | %43
w: ||
 [G,EG]2 [F,^DF]2 [G,EG] [A,EFA]2 [B,DFB]- | B8- | [CEB]4- [CEB] z B2 | [=DGB]8 | %47
w: ||||
 .[^CG_B].[CG] z2 !^![^cg_b]!^![cg] z2 | [F,=CD]2 z2{/^c'} [dd']4 | %49
w: ||
 !>!d!>!e!>!B!>!d- d([EFc][DFB][CFA]) | [B,D]>D[B,E]>E [B,G]>GA>G | %51
w: ||
 [DGB] [CFA]2 [B,EG]- [B,EG]G [^CGA]2 | [DGB] [DBd]2 [Fce]- [Fce]d [Fce]2 |1 %53
w: ||
!<(! [B,DG]>!<)!d (!>!e>d) (!>!e>d)(!>!e>d) :|2 [B,DG]2 z2!sfz! !arpeggio!!^![GBdg]2 z2 |] %55
w: ||
V:4
 G,,2 [D,G,B,]2 D,,2 [D,G,B,]2 | [D,,D,] [^D,,^D,]2 [E,,E,]- [E,,E,]2 [_E,,_E,]2 | %2
 [D,,D,]2 [D,G,B,]2 [D,,D,]2 [D,F,C]2 | [G,,G,]2 !>![D,,D,]2 [G,,,G,,]2 z2 |: %4
 _E,>_B,, E,>B,, E,>B,, E,>B,, | [D,,D,]2 (D,/^C,/D,/C,/) D,!>!A,, !>!D,, z :| %6
 _E,>_B,, E,>B,, E,>B,, E,>B,, | [D,,D,]2 [G,B,]2 [C,,C,]2{/F,} G,2 | G,, z z2 z2 !^!D,, z | %9
 G,,2 [D,G,B,]2 [E,,E,]2 [E,G,]2 | _E,>_B,, E,>B,, E,>B,, E,>B,, | %11
 [D,,D,]2 [G,B,]2 [C,,C,]2{/F,} G,2 | G,, z z2 z2 !^!D,, z | G,,2 [D,G,B,]2 [E,,E,]2 [E,G,]2 | %14
 !>!A,,2 [D,F,C]2 [D,,D,]2 [D,F,]2 | [A,,,A,,]2 [D,F,]2 D,,(D,E,F,) | %16
 [G,,G,]2 D,2 [G,,G,]2 [A,,A,]2 | [B,,B,] [A,,A,]2 [G,,G,]- [G,,G,]2 [D,G,B,]2 | %18
 (([D,,D,]2 [^D,,^D,]2 [E,,E,]2 [_E,,_E,]2)) | [D,,D,]2 [G,B,]2 [C,,C,]2 G,2 | %20
 G,,2 ^C2 !>!D z !>![E,,E,]2 | [D,,D,]2 z2 !^!D,,2 z2 |:[M:4/4] F,,2 [_D,F,]2 _D,,2 [D,F,_B,]2 | %23
 [F,,F,] [_A,,_A,]2 [_B,,_B,] [B,,B,]2 [F,,F,]2 | %24
 [B,,,B,,]2 !-(![E,G,C]2!sfz![I:staff -1] !-(!!-)![Gc]2[I:staff +1] !-)![C,C]2 | %25
 [G,,G,]2 !-(![D,G,B,]2!sfz![I:staff -1] !-(!!-)![DFA]2[I:staff +1] !-)!!>!D,,2 | %26
 G,,2 [D,G,]2 D,,2 [D,G,B,]2 | [D,,D,] [^D,,^D,]2 [E,,E,]- [E,,E,]2 z2 | %28
 [E,,E,]2 [E,A,]2 A,,2 [E,A,]2 | z2 (G,2 F,) z z2 | z2 (E,2 A,2) !>![G,,G,]2 | %31
 [F,,F,]2 [D,F,C]2 [D,,D,]2 [D,F,C]2 | z2 (D,2 G,2) !>![F,,F,]2 | %33
 !>![E,,E,]2 [E,G,B,]2 E,,2 [E,G,B,]2 |{/^G,,} A,,4- A,,A,, A,,2 | %35
{/^G,,} A,,4- A,,2 !>![_E,,_E,]2 | !>![D,,D,] z (E,2 G,2 E,2 | G,2 E,2 F,) z z2 | %38
 G,,2 [D,G,]2 D,,2 [D,G,B,]2 | [G,,G,] [A,,A,]2 [B,,B,]- [B,,B,]2 [G,,G,]2 | %40
 [C,,C,]2 !-(![E,G,C]2!sfz![I:staff -1] !-(!!-)![Gc]2[I:staff +1] !-)![C,C]2 | %41
 [G,,G,]2 !-(![D,G,B,]2!sfz![I:staff -1] !-)!!-(![DGB]2[I:staff +1] !-)!!>![G,,,G,,]2 | %42
 [C,,C,]4 G,,4 | [C,,C,]4 C,3 _B,,- | z2 F,2 G, ^G,3 | A,2 !>!F,,2 !>!B,,, z z2 | %46
 D,2 ^C,D,- D,C, D,2 | .[_E,,_E,].[E,,E,] z2[I:staff -1] !^![EG]!^![EG][I:staff +1] z2 | %48
 !>![D,,D,]2 z2{/^C} !>!D4 | !>!D!>!E!>!B,!>!D- D(D,,E,,F,,) | G,,2 [D,G,]2 D,,2 [D,G,B,]2 | %51
 G,, [^D,,^D,]2 [E,,E,]- [E,,E,]2 [_E,,_E,]2 | [D,,D,]2 [D,G,B,]2 [D,,D,]2 [D,F,]2 |1 %53
 G,, z !>!D2 !>!^C2 !>!=C2 :|2 [G,,G,]2 z2 !arpeggio!!^![G,,D,B,]2 z2 |] %55
V:5
 x8 | x8 | x8 | x8 |: _E,,2 E,,2 E,,2 E,,2 | x8 :| _E,,2 E,,2 E,,2 E,,2 | x8 | x8 | x8 | %10
 _E,,2 E,,2 E,,2 E,,2 | x8 | x8 | x8 | x8 | x8 | x8 | x8 | x8 | x8 | x8 | x8 |:[M:4/4] x8 | x8 | %24
 x8 | x8 | x8 | x8 | x8 | D,4- D, z z2 | A,,4- A,,2 x2 | x8 | G,,4- G,,2 x2 | x8 | x8 | x8 | %36
 x2 A,,6- | (A,,4 D,)D,,E,,F,, | x8 | x8 | x8 | x8 | x8 | x8 | B,,8- | B,,2 x6 | G,,8 | x8 | x8 | %49
 x8 | x8 | x8 | x8 |1 x8 :|2 x8 |] %55
V:6
 x8 | x8 | x8 | x4!8va(! x2!8va)! x2 |: x8 | x8 :| x8 | x8 | x8 | x8 | x8 | x8 | x8 | x8 | x8 | %15
 G,4 [CF]([CF][CE][CD]) | x8 | x8 | x8 | x8 | x8 | x8 |:[M:4/4] x8 | x8 | x8 | x8 | x8 | x6 ED | %28
 x8 | z2 ([=C-E]2 [CD]) z z2 | E4- E2 x2 | x8 | D2 EB,- B,2 x2 | x8 | x4 A,B, C2 | x8 | x8 | x8 | %38
 x8 | x8 | x8 | x8 | x8 | x8 | [B,DF] z [B,^D]2 [^CE] [C^E]3- | z4 x2 z2 | x8 | x8 | x8 | x8 | x8 | %51
 x8 | x8 |1 x2 !>![GB]2 !>![GB]2 !>![F^A]2 :|2 x8 |] %55

